src/ios-pricetag-outline.svg

<?xml version="1.0" encoding="utf-8"?>
<!-- Generated by IcoMoon.io -->
<!DOCTYPE svg PUBLIC "-//W3C//DTD SVG 1.1//EN" "http://www.w3.org/Graphics/SVG/1.1/DTD/svg11.dtd">
<svg version="1.1" xmlns="http://www.w3.org/2000/svg" xmlns:xlink="http://www.w3.org/1999/xlink" width="512" height="512" viewBox="0 0 512 512">
<path fill="#000000" d="M464 32h-160l-256 288 160 160 256-288v-160zM448 184l-239.875 272-136.063-136 239.525-272h136.413v136z"></path>
<path fill="#000000" d="M368 160c17.645 0 32-14.355 32-32s-14.355-32-32-32-32 14.355-32 32 14.355 32 32 32zM368 112c8.836 0 16 7.163 16 16s-7.164 16-16 16-16-7.163-16-16 7.164-16 16-16z"></path>
</svg>

<?xml version="1.0" encoding="utf-8"?>
<!-- Generator: Adobe Illustrator 16.2.1, SVG Export Plug-In . SVG Version: 6.00 Build 0)  -->
<!DOCTYPE svg PUBLIC "-//W3C//DTD SVG 1.1//EN" "http://www.w3.org/Graphics/SVG/1.1/DTD/svg11.dtd">
<svg version="1.1" id="Layer_1" xmlns="http://www.w3.org/2000/svg" xmlns:xlink="http://www.w3.org/1999/xlink" x="0px" y="0px"
	 width="512px" height="512px" viewBox="0 0 512 512" enable-background="new 0 0 512 512" xml:space="preserve">
<g>
	<path d="M464,32H304L48,320l160,160l256-288V32z M448,184L208.125,456L72.062,320L311.587,48H448V184z"/>
	<path d="M368,160c17.645,0,32-14.355,32-32s-14.355-32-32-32s-32,14.355-32,32S350.355,160,368,160z M368,112
		c8.836,0,16,7.163,16,16s-7.164,16-16,16s-16-7.163-16-16S359.164,112,368,112z"/>
</g>
</svg>
